assets/QRCodes/QR-MM1-G3.svg

<svg width="41" height="41" viewBox="0 0 41 41" fill="none" xmlns="http://www.w3.org/2000/svg">
<g id="QR-MM1-G3" clip-path="url(#clip0_2121_75)">
<path id="Vector" d="M0 0H41V41H0V0Z" fill="white"/>
<g id="Vector_2">
<path d="M4 4.5H11ZM12 4.5H13ZM16 4.5H17ZM20 4.5H21ZM23 4.5H25ZM26 4.5H28ZM30 4.5H37ZM4 5.5H5ZM10 5.5H11ZM12 5.5H14ZM15 5.5H16ZM18 5.5H19ZM20 5.5H22ZM26 5.5H29ZM30 5.5H31ZM36 5.5H37ZM4 6.5H5ZM6 6.5H9ZM10 6.5H11ZM13 6.5H20ZM22 6.5H25ZM26 6.5H27ZM28 6.5H29ZM30 6.5H31ZM32 6.5H35ZM36 6.5H37ZM4 7.5H5ZM6 7.5H9ZM10 7.5H11ZM12 7.5H13ZM15 7.5H17ZM22 7.5H24ZM25 7.5H26ZM27 7.5H29ZM30 7.5H31ZM32 7.5H35ZM36 7.5H37ZM4 8.5H5ZM6 8.5H9ZM10 8.5H11ZM13 8.5H16ZM17 8.5H18ZM20 8.5H21ZM22 8.5H23ZM28 8.5H29ZM30 8.5H31ZM32 8.5H35ZM36 8.5H37ZM4 9.5H5ZM10 9.5H11ZM15 9.5H21ZM26 9.5H27ZM28 9.5H29ZM30 9.5H31ZM36 9.5H37ZM4 10.5H11ZM12 10.5H13ZM14 10.5H15ZM16 10.5H17ZM18 10.5H19ZM20 10.5H21ZM22 10.5H23ZM24 10.5H25ZM26 10.5H27ZM28 10.5H29ZM30 10.5H37ZM12 11.5H13ZM15 11.5H17ZM19 11.5H24ZM27 11.5H29ZM4 12.5H5ZM6 12.5H8ZM9 12.5H12ZM14 12.5H15ZM16 12.5H17ZM19 12.5H23ZM25 12.5H26ZM27 12.5H28ZM30 12.5H31ZM33 12.5H34ZM35 12.5H37ZM4 13.5H5ZM6 13.5H7ZM9 13.5H10ZM11 13.5H12ZM13 13.5H15ZM17 13.5H18ZM20 13.5H25ZM27 13.5H29ZM30 13.5H32ZM33 13.5H35ZM36 13.5H37ZM10 14.5H11ZM12 14.5H14ZM15 14.5H18ZM20 14.5H21ZM22 14.5H23ZM24 14.5H34ZM36 14.5H37ZM4 15.5H6ZM11 15.5H12ZM19 15.5H22ZM23 15.5H27ZM28 15.5H29ZM30 15.5H32ZM33 15.5H34ZM35 15.5H37ZM4 16.5H5ZM6 16.5H7ZM8 16.5H11ZM16 16.5H17ZM18 16.5H21ZM24 16.5H27ZM28 16.5H29ZM31 16.5H32ZM33 16.5H34ZM6 17.5H7ZM8 17.5H9ZM11 17.5H12ZM14 17.5H15ZM16 17.5H19ZM21 17.5H22ZM24 17.5H25ZM28 17.5H30ZM31 17.5H32ZM34 17.5H36ZM4 18.5H5ZM7 18.5H9ZM10 18.5H11ZM13 18.5H14ZM16 18.5H18ZM21 18.5H25ZM30 18.5H35ZM5 19.5H10ZM11 19.5H13ZM14 19.5H15ZM16 19.5H20ZM25 19.5H27ZM29 19.5H31ZM32 19.5H35ZM4 20.5H9ZM10 20.5H11ZM13 20.5H16ZM22 20.5H23ZM24 20.5H26ZM27 20.5H28ZM29 20.5H31ZM32 20.5H34ZM6 21.5H7ZM12 21.5H13ZM14 21.5H20ZM24 21.5H25ZM26 21.5H31ZM32 21.5H34ZM36 21.5H37ZM5 22.5H6ZM7 22.5H8ZM9 22.5H11ZM13 22.5H17ZM19 22.5H20ZM22 22.5H23ZM25 22.5H26ZM28 22.5H29ZM31 22.5H33ZM34 22.5H36ZM4 23.5H8ZM9 23.5H10ZM11 23.5H13ZM14 23.5H15ZM18 23.5H24ZM26 23.5H27ZM28 23.5H30ZM32 23.5H33ZM5 24.5H6ZM9 24.5H11ZM12 24.5H13ZM14 24.5H15ZM16 24.5H18ZM19 24.5H21ZM26 24.5H30ZM33 24.5H36ZM4 25.5H9ZM11 25.5H12ZM14 25.5H18ZM19 25.5H21ZM24 25.5H25ZM26 25.5H28ZM30 25.5H32ZM33 25.5H34ZM36 25.5H37ZM7 26.5H8ZM10 26.5H12ZM16 26.5H18ZM19 26.5H20ZM21 26.5H22ZM23 26.5H28ZM30 26.5H32ZM35 26.5H37ZM5 27.5H9ZM11 27.5H14ZM15 27.5H17ZM19 27.5H20ZM22 27.5H23ZM24 27.5H25ZM26 27.5H27ZM30 27.5H31ZM32 27.5H34ZM4 28.5H5ZM8 28.5H9ZM10 28.5H11ZM12 28.5H13ZM16 28.5H19ZM21 28.5H22ZM23 28.5H24ZM26 28.5H33ZM34 28.5H37ZM12 29.5H13ZM14 29.5H15ZM16 29.5H17ZM18 29.5H20ZM22 29.5H24ZM25 29.5H26ZM27 29.5H29ZM32 29.5H34ZM4 30.5H11ZM12 30.5H13ZM15 30.5H18ZM21 30.5H26ZM27 30.5H29ZM30 30.5H31ZM32 30.5H33ZM4 31.5H5ZM10 31.5H11ZM12 31.5H13ZM14 31.5H17ZM18 31.5H23ZM27 31.5H29ZM32 31.5H35ZM36 31.5H37ZM4 32.5H5ZM6 32.5H9ZM10 32.5H11ZM13 32.5H15ZM16 32.5H19ZM20 32.5H24ZM26 32.5H33ZM34 32.5H36ZM4 33.5H5ZM6 33.5H9ZM10 33.5H11ZM12 33.5H14ZM16 33.5H17ZM20 33.5H21ZM23 33.5H24ZM26 33.5H29ZM31 33.5H32ZM33 33.5H37ZM4 34.5H5ZM6 34.5H9ZM10 34.5H11ZM12 34.5H13ZM14 34.5H16ZM19 34.5H21ZM24 34.5H25ZM26 34.5H28ZM30 34.5H32ZM33 34.5H35ZM4 35.5H5ZM10 35.5H11ZM14 35.5H15ZM16 35.5H19ZM21 35.5H22ZM24 35.5H25ZM27 35.5H30ZM31 35.5H34ZM36 35.5H37ZM4 36.5H11ZM12 36.5H15ZM20 36.5H24ZM25 36.5H26ZM27 36.5H28ZM29 36.5H31ZM32 36.5H35Z" fill="black"/>
<path d="M4 4.5H11M12 4.5H13M16 4.5H17M20 4.5H21M23 4.5H25M26 4.5H28M30 4.5H37M4 5.5H5M10 5.5H11M12 5.5H14M15 5.5H16M18 5.5H19M20 5.5H22M26 5.5H29M30 5.5H31M36 5.5H37M4 6.5H5M6 6.5H9M10 6.5H11M13 6.5H20M22 6.5H25M26 6.5H27M28 6.5H29M30 6.5H31M32 6.5H35M36 6.5H37M4 7.5H5M6 7.5H9M10 7.5H11M12 7.5H13M15 7.5H17M22 7.5H24M25 7.5H26M27 7.5H29M30 7.5H31M32 7.5H35M36 7.5H37M4 8.5H5M6 8.5H9M10 8.5H11M13 8.5H16M17 8.5H18M20 8.5H21M22 8.5H23M28 8.5H29M30 8.5H31M32 8.5H35M36 8.5H37M4 9.5H5M10 9.5H11M15 9.5H21M26 9.5H27M28 9.5H29M30 9.5H31M36 9.5H37M4 10.5H11M12 10.5H13M14 10.5H15M16 10.5H17M18 10.5H19M20 10.5H21M22 10.5H23M24 10.5H25M26 10.5H27M28 10.5H29M30 10.5H37M12 11.5H13M15 11.5H17M19 11.5H24M27 11.5H29M4 12.5H5M6 12.5H8M9 12.5H12M14 12.5H15M16 12.5H17M19 12.5H23M25 12.5H26M27 12.5H28M30 12.5H31M33 12.5H34M35 12.5H37M4 13.5H5M6 13.5H7M9 13.5H10M11 13.5H12M13 13.5H15M17 13.5H18M20 13.5H25M27 13.5H29M30 13.5H32M33 13.5H35M36 13.5H37M10 14.5H11M12 14.5H14M15 14.5H18M20 14.5H21M22 14.5H23M24 14.5H34M36 14.5H37M4 15.5H6M11 15.5H12M19 15.5H22M23 15.5H27M28 15.5H29M30 15.5H32M33 15.5H34M35 15.5H37M4 16.5H5M6 16.5H7M8 16.5H11M16 16.5H17M18 16.5H21M24 16.5H27M28 16.5H29M31 16.5H32M33 16.5H34M6 17.5H7M8 17.5H9M11 17.5H12M14 17.5H15M16 17.5H19M21 17.5H22M24 17.5H25M28 17.5H30M31 17.5H32M34 17.5H36M4 18.5H5M7 18.5H9M10 18.5H11M13 18.5H14M16 18.5H18M21 18.5H25M30 18.5H35M5 19.5H10M11 19.5H13M14 19.5H15M16 19.5H20M25 19.5H27M29 19.5H31M32 19.5H35M4 20.5H9M10 20.5H11M13 20.5H16M22 20.5H23M24 20.5H26M27 20.5H28M29 20.5H31M32 20.5H34M6 21.5H7M12 21.5H13M14 21.5H20M24 21.5H25M26 21.5H31M32 21.5H34M36 21.5H37M5 22.5H6M7 22.5H8M9 22.5H11M13 22.5H17M19 22.5H20M22 22.5H23M25 22.5H26M28 22.5H29M31 22.5H33M34 22.5H36M4 23.5H8M9 23.5H10M11 23.5H13M14 23.5H15M18 23.5H24M26 23.5H27M28 23.5H30M32 23.5H33M5 24.5H6M9 24.5H11M12 24.5H13M14 24.5H15M16 24.5H18M19 24.5H21M26 24.5H30M33 24.5H36M4 25.5H9M11 25.5H12M14 25.5H18M19 25.5H21M24 25.5H25M26 25.5H28M30 25.5H32M33 25.5H34M36 25.5H37M7 26.5H8M10 26.5H12M16 26.5H18M19 26.5H20M21 26.5H22M23 26.5H28M30 26.5H32M35 26.5H37M5 27.5H9M11 27.5H14M15 27.5H17M19 27.5H20M22 27.5H23M24 27.5H25M26 27.5H27M30 27.5H31M32 27.5H34M4 28.5H5M8 28.5H9M10 28.5H11M12 28.5H13M16 28.5H19M21 28.5H22M23 28.5H24M26 28.5H33M34 28.5H37M12 29.5H13M14 29.5H15M16 29.5H17M18 29.5H20M22 29.5H24M25 29.5H26M27 29.5H29M32 29.5H34M4 30.5H11M12 30.5H13M15 30.5H18M21 30.5H26M27 30.5H29M30 30.5H31M32 30.5H33M4 31.5H5M10 31.5H11M12 31.5H13M14 31.5H17M18 31.5H23M27 31.5H29M32 31.5H35M36 31.5H37M4 32.5H5M6 32.5H9M10 32.5H11M13 32.5H15M16 32.5H19M20 32.5H24M26 32.5H33M34 32.5H36M4 33.5H5M6 33.5H9M10 33.5H11M12 33.5H14M16 33.5H17M20 33.5H21M23 33.5H24M26 33.5H29M31 33.5H32M33 33.5H37M4 34.5H5M6 34.5H9M10 34.5H11M12 34.5H13M14 34.5H16M19 34.5H21M24 34.5H25M26 34.5H28M30 34.5H32M33 34.5H35M4 35.5H5M10 35.5H11M14 35.5H15M16 35.5H19M21 35.5H22M24 35.5H25M27 35.5H30M31 35.5H34M36 35.5H37M4 36.5H11M12 36.5H15M20 36.5H24M25 36.5H26M27 36.5H28M29 36.5H31M32 36.5H35" stroke="black"/>
</g>
<g id="Page-1">
<rect id="Rectangle 1" x="16" y="16" width="9" height="9" fill="white"/>
<g id="logo_cone_colorful">
<path id="Path" fill-rule="evenodd" clip-rule="evenodd" d="M21.7139 22.6081L21.5187 22.7498C20.5701 22.7927 19.6202 22.7005 18.6975 22.4758C18.0825 22.3386 17.5033 22.0732 16.9977 21.697L16.3897 19.2357C17.0967 20.2175 18.0545 20.9913 19.1629 21.4761C20.0894 21.899 21.0733 22.1825 22.0827 22.3175L21.7139 22.6081Z" fill="#52312D"/>
<path id="Path_2" fill-rule="evenodd" clip-rule="evenodd" d="M16.9981 21.6961L16.3901 19.2348C16.5781 19.5091 16.7903 19.7661 17.024 20.0027C17.0481 20.1301 17.0708 20.2494 17.0844 20.311C17.1791 20.7361 17.2535 21.2004 17.504 21.4614C17.7117 21.6774 18.3801 22.0087 18.5459 22.0854C18.1755 21.9672 17.8965 21.8604 17.6632 21.7614C17.4254 21.6608 17.1464 21.4935 16.9974 21.696" fill="#72544E"/>
<path id="Path_3" fill-rule="evenodd" clip-rule="evenodd" d="M21.7139 22.6081L21.5187 22.7498C20.5701 22.7927 19.6202 22.7005 18.6975 22.4758C18.0825 22.3385 17.5033 22.0732 16.9977 21.697C17.1468 21.4945 17.4258 21.6624 17.6636 21.7624C17.8962 21.8611 18.1752 21.9682 18.5463 22.0864C19.5127 22.4047 21.0884 22.5591 21.3361 22.5191C21.5912 22.4793 21.8414 22.4123 22.0822 22.319L21.7139 22.6081Z" fill="#37000F"/>
<path id="Path_4" fill-rule="evenodd" clip-rule="evenodd" d="M21.0284 23.1051L19.1245 24.4851C18.8632 24.7069 18.517 24.8013 18.1793 24.7428C17.8937 24.672 17.672 24.4467 17.6061 24.1599L17.3306 23.0446C17.8099 23.17 18.3013 23.2441 18.7964 23.2654C18.8632 23.2694 18.9305 23.2722 18.9983 23.2744C19.679 23.2955 20.3599 23.2388 21.0277 23.1053" fill="#52312D"/>
<path id="Shape" fill-rule="evenodd" clip-rule="evenodd" d="M21.0284 23.1051L19.1245 24.4851C18.8633 24.7069 18.517 24.8013 18.1793 24.7428L18.1683 24.74H18.1657H18.1629L18.1575 24.7385L18.1522 24.7369L18.1487 24.7359H18.1468L18.1413 24.7343L18.1385 24.7334H18.1361L18.1305 24.7319L18.1253 24.7302H18.1234L18.1153 24.7274L18.1122 24.7263H18.1101L18.1048 24.7244L18.0997 24.7227L18.0951 24.721L18.0899 24.7191L18.0866 24.7179H18.0845L18.0795 24.7158L18.0743 24.7137L18.0701 24.712H18.0691L18.0639 24.7099L18.0591 24.7078L18.054 24.7057L18.0442 24.7012L18.0392 24.699L18.0341 24.6967L18.0291 24.6945L18.0243 24.6921L18.0196 24.6897L18.0148 24.6872L18.0052 24.6824L18.0004 24.68C17.9907 24.6749 17.9815 24.6697 17.9723 24.6644L17.9677 24.6614L17.9495 24.6504L17.9452 24.6474L17.9362 24.6415L17.932 24.6386L17.9275 24.6357L17.9232 24.6327L17.9059 24.6206L17.9016 24.6175L17.8943 24.6119L17.8931 24.6111L17.8889 24.6078L17.8848 24.6045L17.8806 24.6012L17.873 24.595C17.8739 24.5903 17.8751 24.5858 17.8761 24.5813C17.9474 24.3054 18.378 24.347 18.7701 24.3236C19.11 24.3236 20.0088 23.6116 20.5678 23.1903C20.7164 23.1686 20.8653 23.143 21.0145 23.1134C21.0186 23.1136 21.0226 23.1128 21.0263 23.1112L21.0284 23.1051Z" fill="#2E0005"/>
<path id="Path_5" fill-rule="evenodd" clip-rule="evenodd" d="M17.8728 24.5896C17.7404 24.4786 17.6471 24.3279 17.6066 24.1599L17.3313 23.0446C17.4855 23.0875 17.6459 23.1237 17.811 23.1538C17.9003 23.5624 17.9734 23.9293 18.1037 24.0822C18.2871 24.2437 18.5257 24.3282 18.7699 24.3182C18.3708 24.3421 17.9336 24.2987 17.8728 24.5898" fill="#72544E"/>
<path id="Shape_2" fill-rule="evenodd" clip-rule="evenodd" d="M18.3573 20.307C17.9169 20.1022 17.4986 19.8528 17.109 19.5628C17.4914 19.6972 17.8835 19.8023 18.2818 19.8771C18.9049 20.2319 19.844 20.5303 20.6796 20.7252C19.9849 20.6452 19.2363 20.4988 18.3979 20.3271L18.3573 20.307Z" fill="#FDBE64"/>
<path id="Path_6" fill-rule="evenodd" clip-rule="evenodd" d="M16.1353 17.8943C15.8897 16.8488 16.5969 16.3043 17.692 16.2084C20.457 15.9683 23.4326 16.9883 24.9004 18.1988C22.896 17.4867 19.0504 17.297 17.0947 18.1167C16.9052 18.1836 16.7261 18.2768 16.5626 18.3937C16.4517 18.4693 16.3686 18.5792 16.326 18.7066L16.1353 17.8943Z" fill="#FAA61A"/>
<path id="Path_7" fill-rule="evenodd" clip-rule="evenodd" d="M24.8997 18.1986C22.8953 17.4865 19.0497 17.2968 17.094 18.1165C16.9045 18.1834 16.7254 18.2766 16.5619 18.3935C16.4511 18.4691 16.368 18.5789 16.3253 18.7062C16.2689 18.3485 16.4545 17.9963 16.7816 17.8408C18.8678 16.8706 23.1404 17.2749 24.8989 18.1986" fill="#E9841D"/>
<path id="Path_8" fill-rule="evenodd" clip-rule="evenodd" d="M16.1353 17.8945C15.8897 16.8491 16.5969 16.3044 17.692 16.2094C17.9206 16.1897 18.151 16.1784 18.3815 16.1748C17.2454 16.2889 16.1346 16.7287 16.5085 18.044C16.3588 18.2305 16.293 18.4706 16.3266 18.7073L16.1353 17.8945Z" fill="#FDBE64"/>
<path id="Path_9" fill-rule="evenodd" clip-rule="evenodd" d="M22.9789 21.3626C20.6078 21.3185 18.373 20.5252 17.109 19.5626C17.9163 19.8568 19.1643 20.0773 20.6209 20.1452C22.3427 20.2253 23.9451 20.0739 24.961 19.7784L22.9789 21.3626Z" fill="#FAA61A"/>
<path id="Path_10" fill-rule="evenodd" clip-rule="evenodd" d="M22.9788 21.3626C21.3967 21.3344 19.8372 20.9816 18.3971 20.326C21.1246 20.8861 22.9026 21.1765 24.9608 19.7784L22.9788 21.3626Z" fill="#E9841D"/>
</g>
</g>
</g>
<defs>
<clipPath id="clip0_2121_75">
<rect width="41" height="41" fill="white"/>
</clipPath>
</defs>
</svg>

<svg xmlns="http://www.w3.org/2000/svg" viewBox="0 0 41 41" shape-rendering="crispEdges"><path fill="#ffffff" d="M0 0h41v41H0z"/><path stroke="#000000" d="M4 4.5h7m1 0h1m3 0h1m3 0h1m2 0h2m1 0h2m2 0h7M4 5.5h1m5 0h1m1 0h2m1 0h1m2 0h1m1 0h2m4 0h3m1 0h1m5 0h1M4 6.5h1m1 0h3m1 0h1m2 0h7m2 0h3m1 0h1m1 0h1m1 0h1m1 0h3m1 0h1M4 7.5h1m1 0h3m1 0h1m1 0h1m2 0h2m5 0h2m1 0h1m1 0h2m1 0h1m1 0h3m1 0h1M4 8.5h1m1 0h3m1 0h1m2 0h3m1 0h1m2 0h1m1 0h1m5 0h1m1 0h1m1 0h3m1 0h1M4 9.5h1m5 0h1m4 0h6m5 0h1m1 0h1m1 0h1m5 0h1M4 10.5h7m1 0h1m1 0h1m1 0h1m1 0h1m1 0h1m1 0h1m1 0h1m1 0h1m1 0h1m1 0h7M12 11.5h1m2 0h2m2 0h5m3 0h2M4 12.5h1m1 0h2m1 0h3m2 0h1m1 0h1m2 0h4m2 0h1m1 0h1m2 0h1m2 0h1m1 0h2M4 13.5h1m1 0h1m2 0h1m1 0h1m1 0h2m2 0h1m2 0h5m2 0h2m1 0h2m1 0h2m1 0h1M10 14.5h1m1 0h2m1 0h3m2 0h1m1 0h1m1 0h10m2 0h1M4 15.5h2m5 0h1m7 0h3m1 0h4m1 0h1m1 0h2m1 0h1m1 0h2M4 16.5h1m1 0h1m1 0h3m5 0h1m1 0h3m3 0h3m1 0h1m2 0h1m1 0h1M6 17.5h1m1 0h1m2 0h1m2 0h1m1 0h3m2 0h1m2 0h1m3 0h2m1 0h1m2 0h2M4 18.5h1m2 0h2m1 0h1m2 0h1m2 0h2m3 0h4m5 0h5M5 19.5h5m1 0h2m1 0h1m1 0h4m5 0h2m2 0h2m1 0h3M4 20.5h5m1 0h1m2 0h3m6 0h1m1 0h2m1 0h1m1 0h2m1 0h2M6 21.5h1m5 0h1m1 0h6m4 0h1m1 0h5m1 0h2m2 0h1M5 22.5h1m1 0h1m1 0h2m2 0h4m2 0h1m2 0h1m2 0h1m2 0h1m2 0h2m1 0h2M4 23.5h4m1 0h1m1 0h2m1 0h1m3 0h6m2 0h1m1 0h2m2 0h1M5 24.5h1m3 0h2m1 0h1m1 0h1m1 0h2m1 0h2m5 0h4m3 0h3M4 25.5h5m2 0h1m2 0h4m1 0h2m3 0h1m1 0h2m2 0h2m1 0h1m2 0h1M7 26.5h1m2 0h2m4 0h2m1 0h1m1 0h1m1 0h5m2 0h2m3 0h2M5 27.5h4m2 0h3m1 0h2m2 0h1m2 0h1m1 0h1m1 0h1m3 0h1m1 0h2M4 28.5h1m3 0h1m1 0h1m1 0h1m3 0h3m2 0h1m1 0h1m2 0h7m1 0h3M12 29.5h1m1 0h1m1 0h1m1 0h2m2 0h2m1 0h1m1 0h2m3 0h2M4 30.5h7m1 0h1m2 0h3m3 0h5m1 0h2m1 0h1m1 0h1M4 31.5h1m5 0h1m1 0h1m1 0h3m1 0h5m4 0h2m3 0h3m1 0h1M4 32.5h1m1 0h3m1 0h1m2 0h2m1 0h3m1 0h4m2 0h7m1 0h2M4 33.5h1m1 0h3m1 0h1m1 0h2m2 0h1m3 0h1m2 0h1m2 0h3m2 0h1m1 0h4M4 34.5h1m1 0h3m1 0h1m1 0h1m1 0h2m3 0h2m3 0h1m1 0h2m2 0h2m1 0h2M4 35.5h1m5 0h1m3 0h1m1 0h3m2 0h1m2 0h1m2 0h3m1 0h3m2 0h1M4 36.5h7m1 0h3m5 0h4m1 0h1m1 0h1m1 0h2m1 0h3"/></svg>
